static/images/past-sponsors/arm.svg

<svg fill="none" height="60" viewBox="0 0 302 60" width="302" xmlns="http://www.w3.org/2000/svg"><path d="m115.26 10.3505h9.11v39.0181h-9.11v-4.0679c-4.01 4.6409-8.88 5.2711-11.688 5.2711-12.032 0-18.9074-10.0267-18.9074-20.7409 0-12.7196 8.7089-20.51176 19.0224-20.51176 2.864 0 7.906.74486 11.573 5.55766zm-21.2563 19.7096c0 6.7608 4.2399 12.4331 10.8293 12.4331 5.729 0 11.058-4.1826 11.058-12.3185 0-8.537-5.272-12.605-11.058-12.605-6.5894-.0573-10.8293 5.5003-10.8293 12.4904zm41.1953-19.7096h9.11v3.495c1.031-1.2032 2.521-2.521 3.782-3.2659 1.776-1.03128 3.495-1.31776 5.557-1.31776 2.235 0 4.641.34377 7.162 1.83346l-3.724 8.2505c-2.063-1.3178-3.724-1.3751-4.641-1.3751-1.948 0-3.896.2865-5.672 2.12-2.521 2.6929-2.521 6.4171-2.521 8.9954v20.2252h-9.11zm31.398 0h9.11v3.6096c3.037-3.7242 6.646-4.64096 9.626-4.64096 4.068 0 7.906 1.94806 10.084 5.72956 3.265-4.641 8.136-5.72956 11.573-5.72956 4.756 0 8.881 2.23456 11.116 6.13056.744 1.3178 2.062 4.1826 2.062 9.8549v24.1213h-9.11v-21.4858c0-4.3544-.458-6.1306-.859-6.9327-.573-1.4897-1.948-3.4377-5.214-3.4377-2.235 0-4.183 1.2032-5.386 2.8647-1.604 2.2346-1.776 5.5577-1.776 8.8808v20.1107h-9.11v-21.4858c0-4.3544-.458-6.1306-.859-6.9327-.573-1.4897-1.948-3.4377-5.214-3.4377-2.235 0-4.183 1.2032-5.386 2.8647-1.604 2.2346-1.776 5.5577-1.776 8.8808v20.1107h-8.881z" fill="#000"/></svg>

<svg width="302" height="60" viewBox="0 0 302 60" fill="none" xmlns="http://www.w3.org/2000/svg">
<path d="M115.26 10.3505H124.37V49.3686H115.26V45.3007C111.25 49.9416 106.38 50.5718 103.572 50.5718C91.54 50.5718 84.6646 40.5451 84.6646 29.8309C84.6646 17.1113 93.3735 9.31914 103.687 9.31914C106.551 9.31914 111.593 10.064 115.26 14.8768V10.3505ZM94.0037 30.0601C94.0037 36.8209 98.2436 42.4932 104.833 42.4932C110.562 42.4932 115.891 38.3106 115.891 30.1747C115.891 21.6377 110.619 17.5697 104.833 17.5697C98.2436 17.5124 94.0037 23.07 94.0037 30.0601ZM135.199 10.3505H144.309V13.8455C145.34 12.6423 146.83 11.3245 148.091 10.5796C149.867 9.54832 151.586 9.26184 153.648 9.26184C155.883 9.26184 158.289 9.60561 160.81 11.0953L157.086 19.3458C155.023 18.028 153.362 17.9707 152.445 17.9707C150.497 17.9707 148.549 18.2572 146.773 20.0907C144.252 22.7836 144.252 26.5078 144.252 29.0861V49.3113H135.142L135.199 10.3505ZM166.597 10.3505H175.707V13.9601C178.744 10.2359 182.353 9.31914 185.333 9.31914C189.401 9.31914 193.239 11.2672 195.417 15.0487C198.682 10.4077 203.553 9.31914 206.99 9.31914C211.746 9.31914 215.871 11.5537 218.106 15.4497C218.85 16.7675 220.168 19.6323 220.168 25.3046V49.4259H211.058V27.9401C211.058 23.5857 210.6 21.8095 210.199 21.0074C209.626 19.5177 208.251 17.5697 204.985 17.5697C202.75 17.5697 200.802 18.7729 199.599 20.4344C197.995 22.669 197.823 25.9921 197.823 29.3152V49.4259H188.713V27.9401C188.713 23.5857 188.255 21.8095 187.854 21.0074C187.281 19.5177 185.906 17.5697 182.64 17.5697C180.405 17.5697 178.457 18.7729 177.254 20.4344C175.65 22.669 175.478 25.9921 175.478 29.3152V49.4259H166.597V10.3505Z" fill="black"/>
</svg>
